X: 344
T: Bir Ak Duvak
C: Fethi Karamahmutoğlu
O: Turkey
F: http://compmusic.upf.edu/node/140
N: buselik--fantezi--devrituran--bir_ak_duvak--fethi_karamahmutoglu
N: makam= buselik
N: form= fantezi
N: usul= devrituran = 7/16
M: 7/16
L: 1/16
K: C    
Q: 1/4=240
%%MIDI tuningsystem comma53
A2 A2 c4 B2 c4  | c3B A2 B2 ^G2 A4  | \
w:   |   | 
A4 c4 B2 c2 d2  | c2 B2 A2 ^G2 A4 z2  | 
w:   |   | 
A2 A2 c4 B2 c4  | c3B A2 B2 ^G2 A4  | \
w:   |   | 
A4 c4 B2 c2 d2  | c2 B2 A2 ^G2 A4 z2  | 
w:   |   | 
d4 d4 d2 d2 c2  | _7/8e3d c2 B2 c6  | \
w:   |   | 
c4 c4 B2 c2 d2  | c3B A2 ^G2 A2 B2 c2  | 
w:   |   | 
d4 d4 d2 d2 c2  | _7/8e3d c2 B2 c6  | \
w:   |   | 
c4 c2 B2 c2 d2 e2  | c2 B2 A2 ^G2 A6  | 
w:   |   | 
e4 e4 e2 e4  | e4 f4 e2 d4  | g4 g4 ^f2 g4  | \
w:   |   |   | 
^f4 g4 =f2 e4  | e4 e4 e2 e4  | e4 f4 e2 d4  | 
w:   |   |   | 
g4 g4 ^f2 g4  | ^f4 g4 =f2 e4  | e4 f4 g2 a4  | \
w:   |   |   | 
g4 f4 e2 d4  | B2 c2 d2 c2 _7/8e2 d2 c2  | 
w:   |   | 
B2 c2 d2 c2 _7/8e2 d2 c2  | B2 c2 d2 c2 _7/8e2 d2 c2  | \
w:   |   | 
B2 c2 d2 c2 _7/8e2 d2 c2  | 
w:   | 
d4 d4 d2 d2 c2  | _7/8e2 d2 c2 B2 c4 z2  | \
w:   |   | 
c4 c4 B2 c2 d2  | c2 B2 A2 ^G2 A4 z2  | 
w:   |   | 
d4 d4 d2 d2 c2  | _7/8e2 d2 c2 B2 c4 z2  | \
w:   |   | 
c4 c2 B2 c2 d2 e2  | c2 B2 A2 ^G2 A6  | 
w:   |   | 
|


